X:1
T:Gammelt Øl
T:Gammelt Øl
T:Carl Möller
C:Carl Möller
%%score [ 1 2 3 4 ]
L:1/8
Q:1/4=116
M:4/4
K:D
V:1 treble-8 nm="Tenor 1" snm="T1."
V:2 treble-8 nm="T2"
V:3 bass nm="B1"
V:4 bass nm="B2"
V:1
!f!"^Maestoso energico" A/ A3/2 A/ | !>!d3 d c2 B2 | A4 F3/2 F/ F3/2 F/ | B4 A3/2!mp! G/ G3/2 G/ | %4
w: 1.Det var i|go- de gam- le|da- ge, da Bac- chus|le- ved, da Bac- chus|
w: 2.I dis- se|go- de gam- le|da- ge, da Bac- chus|le- ved, da Bac- chus|
w: 3.Ja gid de|go- de gam- le|da- ge, da Bac- chus|le- ved, da Bac- chus|
 B4 A3/2!f! A/ A3/2 A/ | !>!d3 d c2 B2 | A4 F3/2 F/ F3/2 F/ | %7
w: le- ved, da in- gen|ha- ge man lot|ra- ge, men man- dom|
w: le- ved, da kvin- nen|bryg- ged og hun|ba- get, og hus- lig|
w: le- ved, må ven- de|frank og fri til-|ba- ke, og sæt- te|
"^rit." !tenuto!E2 !tenuto!e2 !tenuto!c2 !tenuto!B2 | !fermata!A4 z3/2!p!"^a tempo" A/ A3/2 A/ | %9
w: vis- te sig i|alt (1./2.)Da blev po-|
w: færd var hen- des|alt. * * *|
w: man- doms- kraft i|alt. (3.)Så fyld po-|
"^poco" c3"^cresc." c d3 d | e4 A3/2 A/ A3/2 A/ | d3 d"^rit."!<(! e3 e!<)! | %12
w: ka- len fylt til|ran- den med rik- tig|æg- te gam- melt|
w: |||
w: ka- len tæt til|ran- den med rik- tig|æg- te gam- melt|
!f! f4- f3/2"^a tempo" A/ A3/2 A/ |!p! d3 d c2 B2 | A4 F3/2 F/ F3/2 F/ | %15
w: øl; * nu drik- kes|pjol- ter, fy for|fan- den og det er|
w: |||
w: øl; * men si ei|me- re fy for|fan- den ti det er|
 !fermata!B3!f! B !tenuto!A2 !tenuto!c2 | !fermata!d4 z"^dolce"!p! d f d | c4 c e g c | %18
w: galt, ja det er|galt. * * *||
w: |* (1./2./3.)For Bac- chi|glæ- de vi le- ve|
w: galt, ja det er|galt. * * *||
 d4 z d f d | c4 c e g c | d4 z3/2!f! A/ A3/2 A/ | d3 d c2 B2 | A4 F3/2 F/ F3/2 F/ | %23
w: ||* (1./2.)Nu drik- kes|pjol- ter, fy for|fan- den og det er|
w: må, og Bac- chi|sæ- der vi hol- de|på! * * *|||
w: ||* (3.)Men si ei|me- re fy for|fan- den ti det er|
 !fermata!B3!f!"^rit." B A2 c2 | !fermata!d4 z3/2 |] %25
w: galt, * * *||
w: * ja det er|galt!|
w: galt, * * *||
V:2
!f! A/ A3/2 A/ | !>!A3 A A2 ^G2 | A4 F3/2 D/ D3/2 D/ | G4 G3/2!mp! E/ E3/2 E/ | %4
w: 1.Det var i|go- de gam- le|da- ge, da Bac- chus|le- ved, da Bac- chus|
w: 2.I dis- se|go- de gam- le|da- ge, da Bac- chus|le- ved, da Bac- chus|
w: 3.Ja gid de|go- de gam- le|da- ge, da Bac- chus|le- ved, da Bac- chus|
 F4 F3/2!f! A/ A3/2 A/ | !>!A3 A A2 ^G2 | A4 F3/2 F/ F3/2 F/ | %7
w: le- ved, da in- gen|ha- ge man lot|ra- ge, men man- dom|
w: le- ved, da kvin- nen|bryg- ged og hun|ba- get, og hus- lig|
w: le- ved, må ven- de|frank og fri til-|ba- ke, og sæt- te|
"^rit." !tenuto!E2 !tenuto!^G2 !tenuto!G2 !tenuto!G2 | !fermata!A4 z3/2!p!"^a tempo" A/ A3/2 A/ | %9
w: vis- te sig i|alt (1./2.)Da blev po-|
w: færd var hen- des|alt. * * *|
w: man- doms- kraft i|alt. (3.)Så fyld po-|
"^poco" A3"^cresc." A A3 A | c4 A3/2 A/ A3/2 A/ | A3 A"^rit."!<(! c3 c!<)! | %12
w: ka- len fylt til|ran- den med rik- tig|æg- te gam- melt|
w: |||
w: ka- len tæt til|ran- den med rik- tig|æg- te gam- melt|
!f! d4- d3/2"^a tempo" A/ A3/2 A/ |!p! A3 A A2 ^G2 | A4 F3/2 D/ D3/2 D/ | %15
w: øl; * nu drik- kes|pjol- ter, fy for|fan den og det er|
w: |||
w: øl; * men si ei|me- re fy for|fan- den ti det er|
 !fermata!G3!f! ^G !tenuto!A2 !tenuto!A2 | !fermata!A4 z"^dolce"!p! F A F | E4 E G B G | %18
w: galt, ja det er|galt. (1./2./3.)For Bac- chi|glæ- de vi le- ve|
w: |||
w: galt, ja det er|galt. * * *||
 F4 z F A F | E4 E G B G | F4 z3/2!f! A/ A3/2 A/ | A3 A A2 ^G2 | A4 F z z2 | %23
w: må, og Bac- chi|sæ- der vi hol- de|på! (1./2.)Nu drik- kes|pjol- ter, fy for|fan- den|
w: ||* (3.)Men si ei|me- re fy for|fan- den|
w: |||||
 !fermata!z3!f!"^rit." ^G A2 A2 | !fermata!A4 z3/2 |] %25
w: ja det er|galt!|
w: ||
w: ||
V:3
!f! A,/ A,3/2 A,/ | !>!F,3 F, F,2 ^E,2 | F,4 .F, z z2 | !>!A,,3/2 A,,/ C,3/2 E,/ A, z z2 | %4
w: 1.Det var i|go- de gam- le|da- ge,|le- ved og han drak,|
w: 2.I dis- se|go- de gam- le|da- ge,||
w: 3.Ja gid de|go- de gam- le|da- de,||
 A,,3/2 A,,/ D,3/2 A,/ A,3/2 A,/ A,3/2 A,/ | !>!F,3 F, F,2 ^E,2 | F,4 D,3/2 D,/ D,3/2 ^D,/ | %7
w: le- ved og han drak, da in- gen|ha- ge man lot|ra- ge, men man- dom|
w: * * * * * da kvin- den|bryg- ged og hun|ba- get og hus- lig|
w: * * * * * må ven- de|frank og fri til-|ba- ke, og sæt- te|
"^rit." !tenuto!E,2 !tenuto!E,2 !tenuto!E,2 !tenuto!E,2 | %8
w: vis- te sig i|
w: færd var hen- des|
w: man- doms- kraft i|
 !fermata!A,4 z3/2!p!"^a tempo" A,/ A,3/2 A,/ |"^poco" G,3"^cresc." G, F,3 F, | %10
w: alt (1./2.)Da blev po-|ka- len fylt til|
w: alt. * * *||
w: alt. (3.)Så fyld po-|ka- len tæt til|
 E,4 A,3/2 A,/ A,3/2 A,/ | F,3 F,"^rit."!<(! A,3 A,!<)! |!f! A,4- A,3/2"^a tempo" A,/ A,3/2 A,/ | %13
w: ran- den med rik- tig|æg- te gam- melt|øl; * nu drik- kes|
w: |||
w: ran- den med rik- tig|æg- te gam- melt|øl; * men si ei|
!p! F,3 F, F,2 ^E,2 | F,4 A, z z2 | !fermata!z3!f! ^G, !tenuto!A,2 !tenuto!=G,2 | !fermata!F,4 z4 | %17
w: pjol- ter fy for|fan- den|(1./2./3.)ja det er|galt.|
w: ||||
w: me- re fy for|fan- den|||
!p! .E, .A, .E, .A, .E, .A, .E, .A, | .F, .A, .F, .A, .F, .A, .F, .A, | %19
w: Bac- chi, Bac- chi, Bac- chi, Bac- chi,|Bac- chi, Bac- chi, Bac- chi, Bac- chi,|
w: ||
w: ||
 .E, .A, .E, .A, .E, .A, .E, .A, | .F, .A, .F, .A, .F,!f! A, ^G, =G, | F,3 F, F,2 ^E,2 | %22
w: Bac- chi, Bac- chi, Bac- chi, Bac- chi,|Bac- chus hol- des på. (1./2.)Nu drik- kes|pjol- ter, fy for|
w: |* * * * * (3.)Men si ei|me- re fy for|
w: |||
 F,4 F, z z2 | !fermata!z3!f!"^rit." ^G, A,2 =G,2 | !fermata!F,4 z3/2 |] %25
w: fan- den|ja det er|galt!|
w: fan- den|||
w: |||
V:4
!f! A,/ A,3/2 A,/ | !>!D,3 D, D,2 D,2 | D,4 .D, z z2 | !>!A,,3/2 A,,/ C,3/2 E,/ A, z z2 | %4
w: 1.Det var i|go- de gam- le|da- ge,|le- ved og han drak,|
w: 2.I dis- se|go- de gam- le|da- ge,||
w: 3.Ja gid de|go- de gam- le|da- ge,||
 A,,3/2 A,,/ D,3/2 A,/ A,3/2 G,/ F,3/2 E,/ | !>!D,3 D, D,2 D,2 | D,4 D,3/2 D,/ D,3/2 ^D,/ | %7
w: le- ved og han drak, da in- gen|ha- ge man lot|ra- ge, men man- dom|
w: * * * * * da kvin- den|bryg- ged og un|ba- get og hus- lig|
w: * * * * * må ven- de|frank og fri til-|ba- ke, og sæt- te|
"^rit." !tenuto!E,2 !tenuto!E,2 !tenuto!E,2 !tenuto!E,2 | %8
w: vis- te sig i|
w: færd var hen- des|
w: man- doms- kraft i|
 !fermata!A,4 z3/2!p!"^a tempo" A,/ A,3/2 A,/ |"^poco" G,3"^cresc." G, F,3 D, | %10
w: alt (1./2.)Da blev po-|ka- len fylt til|
w: alt. * * *||
w: alt. (3.)Så fyld po-|ka- len tæt til|
 A,,4 A,3/2 A,/ A,3/2 A,/ | D,3 D,"^rit."!<(! A,,3 A,,!<)! |!f! D,4- D,3/2"^a tempo" z/ z2 | %13
w: ran- den med rik- tig|æg- te gam- melt|øl; *|
w: |||
w: ran- den med rik- tig|æg- te gam- melt|øl; *|
 z!p! D, D, D, D, D, D, D, | (D,2 F,A,,) D, z z2 | !fermata!z3!f! ^G, !tenuto!A,2 !tenuto!A,,2 | %16
w: nu drik- kes pjol- ter fy for|fan- * * den|(1./2./3.)ja det er|
w: |||
w: men si ei me- re fy for|fan- * * den||
 !fermata!D,4 z4 |!p! A,, z A,, z A,, z A,, z | D, z D, z D, z D, z | A,, z A,, z A,, z A,, z | %20
w: galt.|Bac- chi, Bac- chi|le- ve må og|Bac- chi sæ- der|
w: ||||
w: ||||
 D, z D, z D, z z2 | z!f! D, D, D, D, D, D, D, | (D,2 F,A,,) D, z z2 | %23
w: hol- des på.|(1./2.)Nu drik- kes pjol- ter fy for|fan- * * den|
w: |(3.)Men si ei me- re fy for|fan- * * den|
w: |||
 !fermata!z3!f!"^rit." ^G, A,2 A,,2 | !fermata!D,4 z3/2 |] %25
w: ja det er|galt!|
w: ||
w: ||

